Origami/48x48/apps/popcorn-time.svg

<svg width="48" height="48" version="1.1" viewBox="0 0 48 48" xmlns="http://www.w3.org/2000/svg">
 <path d="m 27.5,5 c -4.995168,0.00195 -9.342812,3.2208562 -10.890625,7.853516 A 5.5,5.5 0 0 0 12.5,11 5.5,5.5 0 0 0 7,16.5 5.5,5.5 0 0 0 8.6386719,20.410156 4.5,4.5 0 0 0 6,24.5 a 4.5,4.5 0 0 0 0.085937,0.857422 c 0.00779,0.04029 0.018485,0.07924 0.027344,0.11914 a 4.5,4.5 0 0 0 0.2246094,0.722657 c 0.018236,0.04462 0.038979,0.08697 0.058594,0.130859 A 4.5,4.5 0 0 0 6.75,26.984375 c 0.018394,0.0277 0.039607,0.05281 0.058594,0.08008 a 4.5,4.5 0 0 0 0.4980468,0.603516 c 0.014316,0.01443 0.030413,0.02678 0.044922,0.04102 a 4.5,4.5 0 0 0 0.6230469,0.515625 c 0.012589,0.0086 0.026383,0.01501 0.039063,0.02344 a 4.5,4.5 0 0 0 0.703125,0.380859 c 0.022107,0.0096 0.044117,0.01813 0.066406,0.02734 a 4.5,4.5 0 0 0 0.7910157,0.246094 c 0.00674,0.0014 0.012784,0.0045 0.019531,0.0059 A 4.5,4.5 0 0 0 10.5,29 4.5,4.5 0 0 0 12,28.736328 l 0,5.181641 C 12,35.071711 12.85709,36 13.921875,36 l 18.15625,0 C 33.14291,36 34,35.071711 34,33.917969 l 0,-4.677735 C 34.739848,29.735175 35.609864,29.999579 36.5,30 38.985281,30 41,27.985281 41,25.5 40.997333,23.580082 39.776863,21.873306 37.960938,21.25 38.641883,19.758822 38.996156,18.139294 39,16.5 39,10.148725 33.851275,5 27.5,5 Z" style="opacity:.2"/>
 <path d="m12 28c-1.662 0-3 1.338-3 3v11.875c0 1.17725 0.83625 2.125 1.875 2.125h4.125 6 6 6 4.125c1.03875 0 1.875-0.94775 1.875-2.125v-11.875c0-1.662-1.338-3-3-3s-3 1.338-3 3v2c0-1.662-1.338-3-3-3s-3 1.338-3 3v1c0-1.662-1.338-3-3-3s-3 1.338-3 3v-1c0-1.662-1.338-3-3-3s-3 1.338-3 3v-2c0-1.662-1.338-3-3-3z" style="opacity:.2"/>
 <path d="m27.5 4c-4.995168 0.001954-9.342812 3.2208562-10.890625 7.853516a5.5 5.5 0 0 0 -4.109375 -1.853516 5.5 5.5 0 0 0 -5.5 5.5 5.5 5.5 0 0 0 1.6386719 3.910156 4.5 4.5 0 0 0 -2.6386719 4.089844 4.5 4.5 0 0 0 0.0859375 0.857422c0.0077918 0.040293 0.0184847 0.079238 0.0273437 0.11914a4.5 4.5 0 0 0 0.2246094 0.722657c0.0182361 0.044623 0.0389794 0.086966 0.0585938 0.130859a4.5 4.5 0 0 0 0.3535156 0.654297c0.0183944 0.027699 0.0396068 0.052815 0.0585938 0.080078a4.5 4.5 0 0 0 0.4980468 0.603516c0.0143161 0.01443 0.0304127 0.026779 0.0449219 0.041015a4.5 4.5 0 0 0 0.6230469 0.515625c0.0125888 0.008556 0.0263828 0.015007 0.0390625 0.023438a4.5 4.5 0 0 0 0.703125 0.380859c0.0221075 0.009562 0.0441167 0.018128 0.0664062 0.027344a4.5 4.5 0 0 0 0.7910157 0.246094c0.0067362 0.001411 0.012784 0.004478 0.0195312 0.005859a4.5 4.5 0 0 0 0.90625 0.091797 4.5 4.5 0 0 0 1.5 -0.263672v5.181641c0 1.153742 0.85709 2.082031 1.921875 2.082031h18.15625c1.064785 0 1.921875-0.928289 1.921875-2.082031v-4.677735c0.739848 0.494941 1.609864 0.759345 2.5 0.759766 2.485281 0 4.5-2.014719 4.5-4.5-0.002667-1.919918-1.223137-3.626694-3.039062-4.25 0.680945-1.491178 1.035218-3.110706 1.039062-4.75 0-6.3512746-5.148725-11.5-11.5-11.5z" style="fill:#e6c59a"/>
 <circle cx="16" cy="20" r="3" style="fill:#3f3f3f"/>
 <circle cx="32" cy="20" r="3" style="fill:#3f3f3f"/>
 <path d="m28 23c0 2.209139-1.790861 4-4 4s-4-1.790861-4-4z" style="fill:#a81a1a"/>
 <circle cx="17" cy="19" r="1" style="fill:#ffffff"/>
 <circle cx="33" cy="19" r="1" style="fill:#ffffff"/>
 <path d="m36 27c-1.662 0-3 1.338-3 3v14h4.125c1.03875 0 1.875-0.94775 1.875-2.125v-11.875c0-1.662-1.338-3-3-3z" style="fill:#e54b3f"/>
 <path d="m12 27c-1.662 0-3 1.338-3 3v11.875c0 1.17725 0.83625 2.125 1.875 2.125h4.125v-14c0-1.662-1.338-3-3-3z" style="fill:#e54b3f"/>
 <path d="m18 29c-1.662 0-3 1.338-3 3v12h6v-12c0-1.662-1.338-3-3-3z" style="fill:#ffffff"/>
 <path d="m24 30c-1.662 0-3 1.338-3 3v11h6v-11c0-1.662-1.338-3-3-3z" style="fill:#e54b3f"/>
 <path d="m30 29c-1.662 0-3 1.338-3 3v12h6v-12c0-1.662-1.338-3-3-3z" style="fill:#ffffff"/>
 <path d="M 27.5 4 C 22.504832 4.001954 18.157188 7.2208558 16.609375 11.853516 A 5.5 5.5 0 0 0 12.5 10 A 5.5 5.5 0 0 0 7 15.5 A 5.5 5.5 0 0 0 7.0253906 16.013672 A 5.5 5.5 0 0 1 12.5 11 A 5.5 5.5 0 0 1 16.609375 12.853516 C 18.157188 8.2208558 22.504832 5.00195 27.5 5 C 33.672596 5 38.696099 9.8669011 38.974609 15.970703 C 38.981428 15.813657 38.999631 15.657507 39 15.5 C 39 9.1487254 33.851275 4 27.5 4 z M 8.0625 19.730469 A 4.5 4.5 0 0 0 6 23.5 A 4.5 4.5 0 0 0 6.0332031 24.007812 A 4.5 4.5 0 0 1 8.6386719 20.410156 A 5.5 5.5 0 0 1 8.0625 19.730469 z M 38.296875 20.396484 C 38.192516 20.68369 38.088313 20.971066 37.960938 21.25 C 39.598014 21.811917 40.741861 23.256039 40.955078 24.941406 C 40.969667 24.793924 41 24.65132 41 24.5 C 40.997505 22.703756 39.921636 21.106855 38.296875 20.396484 z" style="fill:#ffffff;opacity:.2"/>
</svg>

<svg xmlns="http://www.w3.org/2000/svg" width="48" height="48" version="1.1" viewBox="0 0 48 48">
 <path style="opacity:0.2" d="m 27.5,5 c -4.995168,0.00195 -9.342812,3.2208562 -10.890625,7.853516 A 5.5,5.5 0 0 0 12.5,11 5.5,5.5 0 0 0 7,16.5 5.5,5.5 0 0 0 8.6386719,20.410156 4.5,4.5 0 0 0 6,24.5 a 4.5,4.5 0 0 0 0.085937,0.857422 c 0.00779,0.04029 0.018485,0.07924 0.027344,0.11914 a 4.5,4.5 0 0 0 0.2246094,0.722657 c 0.018236,0.04462 0.038979,0.08697 0.058594,0.130859 A 4.5,4.5 0 0 0 6.75,26.984375 c 0.018394,0.0277 0.039607,0.05281 0.058594,0.08008 a 4.5,4.5 0 0 0 0.4980468,0.603516 c 0.014316,0.01443 0.030413,0.02678 0.044922,0.04102 a 4.5,4.5 0 0 0 0.6230469,0.515625 c 0.012589,0.0086 0.026383,0.01501 0.039063,0.02344 a 4.5,4.5 0 0 0 0.703125,0.380859 c 0.022107,0.0096 0.044117,0.01813 0.066406,0.02734 a 4.5,4.5 0 0 0 0.7910157,0.246094 c 0.00674,0.0014 0.012784,0.0045 0.019531,0.0059 A 4.5,4.5 0 0 0 10.5,29 4.5,4.5 0 0 0 12,28.736328 l 0,5.181641 C 12,35.071711 12.85709,36 13.921875,36 l 18.15625,0 C 33.14291,36 34,35.071711 34,33.917969 l 0,-4.677735 C 34.739848,29.735175 35.609864,29.999579 36.5,30 38.985281,30 41,27.985281 41,25.5 40.997333,23.580082 39.776863,21.873306 37.960938,21.25 38.641883,19.758822 38.996156,18.139294 39,16.5 39,10.148725 33.851275,5 27.5,5 Z"/>
 <path style="opacity:0.2" d="m 12,28 c -1.662,0 -3,1.338 -3,3 L 9,42.875 C 9,44.05225 9.83625,45 10.875,45 l 4.125,0 6,0 6,0 6,0 4.125,0 C 38.16375,45 39,44.05225 39,42.875 L 39,31 c 0,-1.662 -1.338,-3 -3,-3 -1.662,0 -3,1.338 -3,3 l 0,2 c 0,-1.662 -1.338,-3 -3,-3 -1.662,0 -3,1.338 -3,3 l 0,1 c 0,-1.662 -1.338,-3 -3,-3 -1.662,0 -3,1.338 -3,3 l 0,-1 c 0,-1.662 -1.338,-3 -3,-3 -1.662,0 -3,1.338 -3,3 l 0,-2 c 0,-1.662 -1.338,-3 -3,-3 z"/>
 <path style="fill:#e6c59a" d="M 27.5 4 C 22.504832 4.001954 18.157188 7.2208562 16.609375 11.853516 A 5.5 5.5 0 0 0 12.5 10 A 5.5 5.5 0 0 0 7 15.5 A 5.5 5.5 0 0 0 8.6386719 19.410156 A 4.5 4.5 0 0 0 6 23.5 A 4.5 4.5 0 0 0 6.0859375 24.357422 C 6.0937293 24.397715 6.1044222 24.43666 6.1132812 24.476562 A 4.5 4.5 0 0 0 6.3378906 25.199219 C 6.3561267 25.243842 6.37687 25.286185 6.3964844 25.330078 A 4.5 4.5 0 0 0 6.75 25.984375 C 6.7683944 26.012074 6.7896068 26.03719 6.8085938 26.064453 A 4.5 4.5 0 0 0 7.3066406 26.667969 C 7.3209567 26.682399 7.3370533 26.694748 7.3515625 26.708984 A 4.5 4.5 0 0 0 7.9746094 27.224609 C 7.9871982 27.233165 8.0009922 27.239616 8.0136719 27.248047 A 4.5 4.5 0 0 0 8.7167969 27.628906 C 8.7389044 27.638468 8.7609136 27.647034 8.7832031 27.65625 A 4.5 4.5 0 0 0 9.5742188 27.902344 C 9.580955 27.903755 9.5870028 27.906822 9.59375 27.908203 A 4.5 4.5 0 0 0 10.5 28 A 4.5 4.5 0 0 0 12 27.736328 L 12 32.917969 C 12 34.071711 12.85709 35 13.921875 35 L 32.078125 35 C 33.14291 35 34 34.071711 34 32.917969 L 34 28.240234 C 34.739848 28.735175 35.609864 28.999579 36.5 29 C 38.985281 29 41 26.985281 41 24.5 C 40.997333 22.580082 39.776863 20.873306 37.960938 20.25 C 38.641883 18.758822 38.996156 17.139294 39 15.5 C 39 9.1487254 33.851275 4 27.5 4 z"/>
 <circle style="fill:#3f3f3f" cx="16" cy="20" r="3"/>
 <circle style="fill:#3f3f3f" cx="32" cy="20" r="3"/>
 <path style="fill:#a81a1a" d="m 28,23 c 0,2.209139 -1.790861,4 -4,4 -2.209139,0 -4,-1.790861 -4,-4 z"/>
 <circle style="fill:#ffffff" cx="17" cy="19" r="1"/>
 <circle style="fill:#ffffff" cx="33" cy="19" r="1"/>
 <path style="fill:#e54b3f" d="M 36 27 C 34.338 27 33 28.338 33 30 L 33 44 L 37.125 44 C 38.16375 44 39 43.05225 39 41.875 L 39 30 C 39 28.338 37.662 27 36 27 z"/>
 <path style="fill:#e54b3f" d="M 12 27 C 10.338 27 9 28.338 9 30 L 9 41.875 C 9 43.05225 9.83625 44 10.875 44 L 15 44 L 15 30 C 15 28.338 13.662 27 12 27 z"/>
 <path style="fill:#ffffff" d="M 18 29 C 16.338 29 15 30.338 15 32 L 15 44 L 21 44 L 21 32 C 21 30.338 19.662 29 18 29 z"/>
 <path style="fill:#e54b3f" d="M 24 30 C 22.338 30 21 31.338 21 33 L 21 44 L 27 44 L 27 33 C 27 31.338 25.662 30 24 30 z"/>
 <path style="fill:#ffffff" d="M 30 29 C 28.338 29 27 30.338 27 32 L 27 44 L 33 44 L 33 32 C 33 30.338 31.662 29 30 29 z"/>
 <path style="opacity:0.2;fill:#ffffff" d="M 27.5 4 C 22.504832 4.001954 18.157188 7.2208558 16.609375 11.853516 A 5.5 5.5 0 0 0 12.5 10 A 5.5 5.5 0 0 0 7 15.5 A 5.5 5.5 0 0 0 7.0253906 16.013672 A 5.5 5.5 0 0 1 12.5 11 A 5.5 5.5 0 0 1 16.609375 12.853516 C 18.157188 8.2208558 22.504832 5.00195 27.5 5 C 33.672596 5 38.696099 9.8669011 38.974609 15.970703 C 38.981428 15.813657 38.999631 15.657507 39 15.5 C 39 9.1487254 33.851275 4 27.5 4 z M 8.0625 19.730469 A 4.5 4.5 0 0 0 6 23.5 A 4.5 4.5 0 0 0 6.0332031 24.007812 A 4.5 4.5 0 0 1 8.6386719 20.410156 A 5.5 5.5 0 0 1 8.0625 19.730469 z M 38.296875 20.396484 C 38.192516 20.68369 38.088313 20.971066 37.960938 21.25 C 39.598014 21.811917 40.741861 23.256039 40.955078 24.941406 C 40.969667 24.793924 41 24.65132 41 24.5 C 40.997505 22.703756 39.921636 21.106855 38.296875 20.396484 z"/>
</svg>
